X: 28642
T: Musical Cat
R: reel
M: 4/4
K: Gmajor
B,2 A,2|:GG,G,G, GBAF|GG,G,G, GABd|A3B cABG|ADDD ABcA|BGGG BGFA|
GG,G,G, B,G,G,B,|1 A,3B, CB,CA,|DADE FGEF:|2 CB,CD E3G|FDFG ABcA||
|:Bddd g3a|gBBA BddB|c3d ecce|dAde fgef|gbaf g3a|
gBBA GABd|1 ADDD A2AB|ADDD EFGA:|2 c3B cBcA|dABd ABBA||

